!!!!SEGMENT: pl-kk--i-545--005_anonim--5-sancta-maria-ora-pro-nobis.krn
!!!cenid: 18xx:4482
!!!COM: Anonim
!!!COM-rismID: pe30004985
!!!CDT:
!!!CNT:
!!!OTL: 5. Sancta Maria ora pro nobis
!!!PDT:
!!!AGN: Sacred
!!!YEC: Copyright 2022 Narodowy Instytut Fryderyka Chopina (https://polishscores.org)
!!!YEM: License CC-BY-4.0 (https://creativecommons.org/licenses/by/4.0)
!!!SMS-siglum: PL-Kk
!!!SMS-shelfmark: I.545
!!!SMS-variant:
!!!SMS-altvar:
!!!SMS-shelfwork: 005 W
!!!NIFC-rismSourceID: 1001210831
!!!NIFC-rismChildID: 1001210838
!!!NIFC-islandoraID: pl-kk:17058
!!!URL-pdf-islandora: https://repozytorium.nifc.pl/islandora/object/pl-kk%3A17058/datastream/PDF/view
!!!URL-scan: https://polish.musicsources.pl/pl/lokalizacje/galeria/rekopisy/7172/5 @EN{Scan on Polish Music Sources Website} @PL{Skany w portalu Dziedzictwo Muzyki Polskiej w otwartym dostępie}
!!!IIIF:
!!!ONB-nifc: UWAGA: 3v.
!!!AIN: 1 coro 1 organ
!!!key: d
**kern	**kern	**kern	**text
*part2	*part2	*part1	*part1
*staff3	*staff2	*staff1	*staff1
*IGacmp	*IGacmp	*IGsolo	*
*ICklav	*ICklav	*ICvox	*
*Iorgan	*Iorgan	*Icoro	*
*I"[Organo]	*I"[Organo]	*I"[Voci]	*
*clefF4	*clefG2	*clefG2	*
*k[b-]	*k[b-]	*k[b-]	*
*d:	*d:	*d:	*
*M4/4	*M4/4	*M4/4	*
*met(c)	*met(c)	*met(c)	*
=1	=1	=1	=1
1D	1f 1d 1A	1r	.
=2	=2	=2	=2
!	!LO:S:s=1:note:problem=note-level slur	!	!
2D\	[1a (1e [1A	1r	.
2C#X\	.	.	.
=3	=3	=3	=3
*	*^	*	*
!	!LO:S:s=1:note:problem=note-level slur	!	!	!
4D\	4a] 4f) 4A/]	4ryy	1r	.
4GG\	8aL 8f/	4B-\	.	.
.	8gJ 8e/	.	.	.
!	!	!LO:N:vis=1	!	!
2AA\	4f 4d/	2A/	.	.
.	4e 4c#X 4G</	.	.	.
=4	=4	=4	=4	=4
*	*	*	*^	*
1A 1F 1D	1d	1d	2d/	2d\	San-
.	.	.	4d/	4d\	-cta
.	.	.	4d/	4d\	Ma-
*	*v	*v	*	*	*
=5	=5	=5	=5	=5
1F 1BB-	1d 1B-	2d/	2d\	-ri-
.	.	2d/	2d\	-a
=6	=6	=6	=6	=6
4FF@\	4f 4c 4A/	4f/	(4f\	o-
4GG@\	4e 4B- 4G/	4e/	4e\)	.
2AA@\	4d 4A< 4F</	4d/	4d\	-ra
.	4c#X 4A< 4E</	4c#X/	4c#\	pro
=7	=7	=7	=7	=7
1A 1F 1D	1d	2d/	2d\	no-
.	.	2d/	2d\	-bis
=8	=8	=8	=8	=8
2D\	2f 2d 2A/	2f/	2f\	Ma-
2C\	2g 2e 2c/	2g/	2g\	-ter
!!LO:LB:g=original
=9	=9	=9	=9	=9
1F 1C 1FF	1a 1f 1c	2a/	2a\	Chris-
.	.	4a/	4a\	-ti
.	.	4a/	4a\	o-
=10	=10	=10	=10	=10
*^	*^	*	*	*
*	*	*	*^	*	*	*
1F 1FF	2D\	2b-/	2B-\	1f	(2b-/	2b-\	-ra
.	4C\	4a/	4A\	.	4a/)	4a\	.
!	!	!	!LO:SIC:v:s=4G#\	!	!	!	!
.	4BBn\	4g#X/	4G\	.	4g#X/	4g#\	pro
*v	*v	*	*	*	*	*	*
*	*v	*v	*v	*	*	*
=11	=11	=11	=11	=11
1F 1C 1FF	1a 1f 1A	2a/	2a\	no-
.	.	2a/	2a\	-bis
=12	=12	=12	=12	=12
*^	*^	*	*	*
2F/	1FF	2a/	1c	2a/	2a\	Ma-
2G 2E/	.	2cc/	.	4cc/	4cc\	-ter
.	.	.	.	4cc/	4cc\	pur-
*	*	*v	*v	*	*	*
=13	=13	=13	=13	=13	=13
1F 1FF	2D/	2b- 2B-/	4.b-/	4.b-\	-ris-
.	.	.	8b-/	8b-\	si-
.	2C/	2a 2A/	2a/	2a\	-ma
*v	*v	*	*	*	*
=14	=14	=14	=14	=14
*	*^	*	*	*
2D\	2f 2A/	1d	2f/	2f\	o-
2GG\	2g 2B-/	.	4g/	4g\	-ra
.	.	.	4g/	4g\	pro
*	*v	*v	*	*	*
=15	=15	=15	=15	=15
*^	*^	*	*	*
!	!	!LO:N:n=2:vis=4	!	!	!	!
4C\	4ryy	4.e 4.G/	4ryy	4.e/	(4.e\	no-
4GG\	4F@/	.	4Bn@\	.	.	.
.	.	8d/	.	8d/	8d\)	.
4C\	4ryy	2c 2E</	2c@	2c/	2c\	-bis
4GG\	4ryy	.	.	.	.	.
*	*	*v	*v	*	*	*
*v	*v	*	*	*	*
!!LO:LB:g=original
=16	=16	=16	=16	=16
*^	*^	*	*	*
2.F/	1AA	2f/	2c\	2f/	2f\	o-
.	.	2c#X/	2ryy	4f/	4f\	-ra
4G/	.	.	.	4e/	4e\	pro
=17	=17	=17	=17	=17	=17	=17
*	*	*	*^	*	*	*
2F/	2BB-\	2.d/	2d\	2ryy	2d/	2d\	no-
2G 2GG\	2ryy	.	2B-/	2B-\	4d/	4d\	-bis
.	.	4e/	.	.	4e/	4e\	pro
*	*	*v	*v	*v	*	*	*
=18	=18	=18	=18	=18	=18
2F/	1AA	2d/	2d/	(2d\	no-
2E/	.	2c#X/	2c#X/	2c#\)	.
*v	*v	*	*v	*v	*
=19	=19	=19	=19
2.d>/ 2.A 2.F 2.D	2.d/yy	[1d	-bis_
4ryy	4dd 4a 4f/	.	.
=20	=20	=20	=20
1r	4cc 4g 4e/	2d/]	.
.	4b- 4f 4d/	.	.
.	4a 4e 4c#X/	2r	.
.	4g 4c# 4A</	.	.
=21	=21	=21	=21
*	*^	*	*
4.Ayy/	4.f 4.d 4.A</	2ryy	1r	.
!LO:N:vis=4	!	!	!	!
8F\	8g 8e/	.	.	.
!	!	!LO:T:color=grey	!	!
4D\	4a [<4f/	[<4d@\	.	.
4BB-\	4a 4f] 4d/]	4ryy	.	.
*	*v	*v	*	*
=22	=22	=22	=22
*^	*^	*	*
2F/	2FF\	2a 2f/	2c\	1ryy	.
2A 2G 2AA\	2ryy	2a 2c#X/	4f\	.	.
.	.	.	4e\	.	.
*v	*v	*	*	*	*
*	*v	*v	*	*
=23	=23	=23	=23
1A 1D 1DD	1d	1ryy	.
==	==	==	==
*-	*-	*-	*-
!!!system-decoration: s1{(s2,s3)}
!!!RDF**kern: i = editorial accidental
!!!RDF**kern: > = above
!!!RDF**kern: < = below
!!!RDF**kern: N = linked
!!!RDF**dynam: > = "dim.", fontstyle= "italic"
!!!RDF**kern: @ = marked note, color=grey
!!!ENC: Filip Voros
!!!EED: Katarzyna Serwa
!!!END: 2023-10-27
!!!EEV: 2024-04-20
